X:1
T:Mr. James Wattie (Bellabeg)
T:Mr. James Wattie (Bellabeg)
T:Alexander Walker
C:Alexander Walker
L:1/8
M:4/4
K:G
V:1 treble 
V:1
|: D | G<G,B,>D G3 B | A<A,C>E A3 c | B<GB<d g>ab>a | g<ed>c B<G G :| d | g>ba>b g>ae>g | %7
 d<BB>A G<(EE>)d | g>ba>b G>AB>A | G>ED<G B,<G,G,>d | g>ba>b g>ae>g | d<BB>A G<(EE>)F | %12
 G>BA>c B<db>a | g<e{e}d>c B<G G || %14

